src/icons_unused/hds/ui/lock.svg

<svg xmlns="http://www.w3.org/2000/svg" width="24" height="24" viewBox="0 0 24 24">
  <g fill="none" fill-rule="evenodd">
    <rect width="24" height="24"/>
    <path fill="currentColor" d="M12,2 C14.71462,2 16.9239659,4.16333539 16.9980791,6.86004758 L17,7 L17,9 L19,9 L19,22 L5,22 L5,9 L7,9 L7,7 C7,4.23857625 9.23857625,2 12,2 Z M17,11 L7,11 L7,20 L17,20 L17,11 Z M13,13 L13,18 L11,18 L11,13 L13,13 Z M12,4 C10.3808015,4 9.06121412,5.28278744 9.00206924,6.88753087 L9,7 L9,9 L15,9 L15,7 C15,5.34314575 13.6568542,4 12,4 Z"/>
  </g>
</svg>

<svg viewBox="0 0 24 24" role="img" xmlns="http://www.w3.org/2000/svg"><g fill="none" fill-rule="evenodd"><path d="M0 0h24v24H0z"/><path d="M12 2a5 5 0 014.998 4.86L17 7v2h2v13H5V9h2V7a5 5 0 015-5zm5 9H7v9h10v-9zm-4 2v5h-2v-5h2zm-1-9a3 3 0 00-2.998 2.888L9 7v2h6V7a3 3 0 00-3-3z" fill="currentColor"/></g></svg>
